src/resources/assets/link.svg

<svg xmlns="http://www.w3.org/2000/svg" width="16" height="16"><path d="M 9.5 4 L 10.5 4 C 12.433594 4 14 5.566406 14 7.5 C 14 9.367188 12.535156 10.894531 10.695312 10.996094 L 10.503906 11 L 9.503906 11.003906 C 9.226562 11.007812 9 10.78125 9 10.507812 C 9 10.261719 9.175781 10.054688 9.40625 10.011719 L 9.496094 10.003906 L 10.5 10 C 11.878906 10 13 8.878906 13 7.5 C 13 6.175781 11.96875 5.089844 10.664062 5.003906 L 10.5 5 L 9.5 5 C 9.222656 5 9 4.777344 9 4.5 C 9 4.253906 9.175781 4.050781 9.410156 4.007812 L 9.5 4 L 10.5 4 Z M 5.5 4 L 6.5 4 C 6.777344 4 7 4.222656 7 4.5 C 7 4.746094 6.824219 4.949219 6.589844 4.992188 L 6.5 5 L 5.5 5 C 4.121094 5 3 6.121094 3 7.5 C 3 8.824219 4.03125 9.910156 5.335938 9.996094 L 5.5 10 L 6.5 10 C 6.777344 10 7 10.222656 7 10.5 C 7 10.746094 6.824219 10.949219 6.589844 10.992188 L 6.5 11 L 5.5 11 C 3.566406 11 2 9.433594 2 7.5 C 2 5.632812 3.464844 4.105469 5.308594 4.003906 L 5.5 4 L 6.5 4 Z M 5.5 7 L 10.5 7.003906 C 10.777344 7.003906 11 7.226562 11 7.503906 C 11 7.746094 10.824219 7.953125 10.589844 7.996094 L 10.5 8.003906 L 5.5 8 C 5.222656 8 5 7.777344 5 7.5 C 5 7.253906 5.175781 7.050781 5.410156 7.007812 Z M 5.5 7" fill="#ddd"/></svg>

<svg xmlns="http://www.w3.org/2000/svg" width="16" height="16"><path d="M9.5 4h1A3.5 3.5 0 0114 7.5a3.503 3.503 0 01-3.305 3.496l-.191.004-1 .004A.499.499 0 019 10.508c0-.246.176-.453.406-.496l.09-.008L10.5 10c1.379 0 2.5-1.121 2.5-2.5a2.503 2.503 0 00-2.336-2.496L10.5 5h-1a.5.5 0 01-.09-.992L9.5 4h1zm-4 0h1a.5.5 0 01.09.992L6.5 5h-1A2.502 2.502 0 003 7.5a2.503 2.503 0 002.336 2.496L5.5 10h1a.5.5 0 01.09.992L6.5 11h-1A3.5 3.5 0 012 7.5a3.504 3.504 0 013.309-3.496L5.5 4h1zm0 3l5 .004c.277 0 .5.223.5.5 0 .242-.176.45-.41.492l-.09.008L5.5 8a.5.5 0 01-.09-.992zm0 0" fill="#ddd"/></svg>
